!!!COM: Gustav Mahler
!!!CNT: Deutsch
!!!TXO: Deutsch
!!!OTL: "Die zwei blauen Augen"
!!!LYR: Gustav Mahler
!!!OPR: Lieder eines fahrenden Gesellen
!!!ENC: O'Neal Douglas
!!!YOR: CD Sheet Music: Late Romantic German Lieder
!!!YOR: CD Sheet Music, LLC, 2001
!!!ODT: 1885/
!!NB: Vocal melody and text encoded.
**kern	**text
*staff1	*staff1
*clefG2	*
*k[f#]	*
*M4/4	*
{8e	{Die
8f#	zwel
*MM120	*
=1	=1
8.g	blau-
16g	-en
8g	Au-
8g	-gen
8r	.
8g	von
8e	mei-
8f#	-nem
=2	=2
4g}	Schatz}
4r	.
8r	.
{8g	{die
8f#	ha-
8g	-ben
=3	=3
4a	mich
8a	in
8a	die
8a	wei-
8g	-te
8f#	Welt
8g	ge-
=4	=4
2a}	-schickt.}
4r	.
{(8g	{Da
8a)	|
=5	=5
4b	musst'
4b	ich
4b	Ab-
4b	-schied
=6	=6
(4.b	neh
8cc)	|
4b	men
4b	vom
=7	=7
(8b	al-
8gg)	|
4gg	-ler-
(8gg	-lieb-
8ff#)	|
(8ff#	-sten
8ee)	|
=8	=8
*M5/4	*
2ee}	Platz!}
4r	.
4r	.
{(8e	{O
8f#)	|
=9	=9
*M4/4	*
8.g	Au-
16g	-gen
4g	blau
8r	.
8g	wa-
8e	-rum
8f#	habt
=10	=10
*M5/4	*
8.g	ihr
16g	mich
8.g	an-
16g	-ge-
4g}	-blickt!?}
4r	.
{(8f#	{Nun
8g)	|
=11	=11
*M4/4	*
4.a	hab'
8a	ich
(8a	e-
16b	|
16a	|
8g)	|
8a	-wig
=12	=12
(4cc	Leid
2b	|
[4a)	|
=13	=13
4a]	|
12g	und
12fn	|
12e	|
(4g	Gra2-
4f#)	|
=14	=14
*M5/4	*
4e}	-men!}
4r	.
2r	.
4r	.
=15	=15
*M4/4	*
1r	.
=16	=16
1r	.
=17	=17
*k[]	*
2r	.
4r	.
{8c	{Ich
8d	bin
=18	=18
4.e	aus-
8e	-ge-
8e	-gan-
8e	-gen
8r	.
8d	in
=19	=19
8.e-	stil-
16e-	-ler
4e-	Nacht,
4r	.
(8c	in
8d)	|
=20	=20
4.e	stil-
8e	-ler
4e	Nacht
(8a-	wohl
8g)	|
=21	=21
2.f	u2-
8a-	-ber
8g	die
=22	=22
4f	dunk-
(8a-	-le
8g)	|
(4f	Hai-
8a-	|
8g)	|
=23	=23
4e}	-de;}
4r	.
2r	.
=24	=24
1r	.
=25	=25
{4g	{hat
4g	mir
(8g	Nie-
8cc)	|
8cc	-mand
8cc	A-
=26	=26
4.b-	-de
8a-	ge-
4g	-sagt.
(8g	A-
8dd-)	|
=27	=27
2cc	-de!
4r	.
(8cc	A-
8b)	|
=28	=28
4b-	-de!
(8b-	A-
8a)	|
4a-	-de!
8a-	Mein
8g	Ge-
=29	=29
2.f	-sell'
(8a-	war
8g)	|
=30	=30
4e	Lieb'
(8a-	und
8g)	|
(4f	Lei-
8a-	|
8g)	|
=31	=31
4e}	-de!}
4r	.
2r	.
=32	=32
1r	.
=33	=33
1r	.
=34	=34
1r	.
=35	=35
1r	.
=36	=36
1r	.
=37	=37
1r	.
=38	=38
1r	.
=39	=39
*k[b-]	*
1r	.
=40	=40
2r	.
4r	.
{8c	{Auf
8f	der
=41	=41
4.f	Stra-
8f	-sse
4f	steht
(8g	ein
8a)	|
=42	=42
(8a	Lin-
8cc)	|
4cc	-den-
4cc	-baum,
(8cc	da
8ff)	|
=43	=43
4ff	hab'
8ff	ich
8ff	zum
8ff	er-
(16gg	-sten
16ff)	|
8ee	Mal
8ff	im
=44	=44
4.cc	Schlaf
8a	ge-
4cc}	-ruht!}
4r	.
=45	=45
2r	.
{4f	{Un-
8f	-ter
8g	dem
=46	=46
(8a	Lin-
8cc)	|
4cc	-den-
4cc	-baum!
4cc	Der
=47	=47
(8b-	hat
8dd)	|
8cc	sei-
8b-	-ne
8a	Blu2-
8g	-then
8f	u2-
8g	-ber
=48	=48
(8a	mich
8cc)	|
4cc	ge-
4cc}	-schneit}
4r	.
=49	=49
1r	.
=50	=50
2r	.
4r	.
{4cc	{da
=51	=51
4cc	wusst'
4cc	ich
(8cc	nicht,
8ff)	|
8ff	wie
8ff	das
=52	=52
4.ee-	Le-
8cc#	-ben
4ccn	thut
(8cc	war
8gg-)	|
=53	=53
2.ff	Al-
(8ff	-les,
8ee)	|
=54	=54
4ee-	Al-
(8ee-	-les
8dd)	|
4dd-	wie-
(8dd-	-der
8cc)	|
=55	=55
2b-}	gut!}
4r	.
{(8dd-	{Ach,
8cc)	|
=56	=56
4a	Al-
(8dd-	-les
8cc)	|
4b-	wie-
(8dd-	-der
8cc)	|
=57	=57
2a}	gut!}
2r	.
=58	=58
{2a	{Al-
4a	-les!
4r	.
=59	=59
2a	Al-
4a	-les!
4r	.
=60	=60
2f	Lieb'
4r	.
4d	und
=61	=61
2f	Leid,
4r	.
4c	und
=62	=62
2A	Welt,
4r	.
4c	und
=63	=63
2A}	Traum!}
2r	.
=64	=64
1r	.
=65	=65
1r	.
=66	=66
1r	.
=67	=67
1r	.
==	==
*-	*-
